X:1
T:Title
%%score ( 1 2 ) ( 3 4 )
L:1/8
Q:1/4=110
M:4/4
K:A
V:1 treble nm="Grand Piano, Soprano"
V:2 treble 
V:3 bass nm="Choir Pad, Hagåtña, 77.77.77.77.77"
V:4 bass 
V:1
 [A,C][B,D] [CE]2 [CE]2 [CE]2 | [CE]2 [Ec]6 | [DB][CA] [EB]2 [EB]2 [EB]2- | [EB][DB] [CA]6 | %4
w: By~William~Batchelder~Bradbury,~1864 * * * *||||
 [A,C][B,D] [CE]2 [CE]2 [CE]2 | [CE]2 [Ec]6 | [DB][CA] [EB]2 E2 [Ec]2- | [Ec][DB] [CA]6 | %8
w: ||||
 [EG][FA] [GB]2 [GB]2 [GB]2 | [Ge]2 [GB]6 | [Ge][Ge][F^d][Ac] [GB][FA][EG][GB] | [FA][^DF] E6 | %12
w: ||||
 [EA][DB] [Cc]2 [Ec]2 [Ec]2 | [=Ge]2 [^Ge]2 [Fd]2 [Fc]2 | [FB]2 [EA]2 [Ec]2 [EB]2 | z2 c6 | %16
w: ||||
 [CA][DB] [Ec]2 [Ec]2 [Ec]2 | [=Ge]2 [^Ge]2 [Fd]2 [Fc]2 | [FB]2 [EA]2 [Ec]2 [Ec]2- | %19
w: |||
 [Ec][DB] [CA]6- | [CA]2 z2 z4 |] %21
w: ||
V:2
 x8 | x8 | x8 | x8 | x8 | x8 | x8 | x8 | x8 | x8 | x8 | x8 | x8 | x8 | x8 | [DE]2 C2 E4 | x8 | x8 | %18
 x8 | x8 | x8 |] %21
V:3
 [A,,E,][A,,E,] [A,,E,]2 [A,,A,]2 [A,,A,]2 | [A,,A,]2 [A,,A,]6 | %2
 [A,,E,][A,,E,] [E,G,]2 [E,G,]2 [E,G,]2- | [E,G,][E,G,] [A,,A,]6 | %4
 [A,,E,][A,,E,] [A,,A,]2 [A,,A,]2 [A,,A,]2 | [A,,A,]2 [A,,A,]6 | %6
 [A,,E,][A,,E,] [E,G,]2 [E,G,]2 [E,A,]2- | [E,A,][E,G,] A,6 | %8
 [E,B,][E,B,] [E,B,]2 [E,B,]2 [E,B,]2 | [E,B,]2 [E,B,]6 | [E,B,][E,B,] B,2 B,2 [B,,B,]2 | %11
 B,A, [E,G,]4 [E,G,][D,B,] | [C,A,][B,,G,] [A,,A,]2 [A,,A,]2 A,2 | A,2 [D,A,]4 [D,A,]2 | %14
 [D,D]2 [E,C]2 [E,A,]2 [E,G,]2 | [E,B,]2 A,6 | [A,,A,][A,,A,] [A,,A,]2 [A,,A,]2 A,2 | %17
 A,2 [D,A,]4 [D,A,]2 | [D,D]2 [E,C]2 [E,A,]2 [E,A,]2- | [E,A,][E,G,] [A,,A,]6- | [A,,A,]2 z2 z4 |] %21
V:4
 x8 | x8 | x8 | x8 | x8 | x8 | x8 | x8 | x8 | x8 | x8 | B,,2 z2 z4 | x8 | x8 | x8 | x8 | x8 | x8 | %18
 x8 | x8 | x8 |] %21

